!!!!SEGMENT: pl-sa--l-1643--027_anonim--na-boze-cialo-sive-sitim-christus-restinguit-sanguine.krn
!!!cenid: 16xx:1382
!!!COM: Anonim
!!!COM-rismid: pe30004985
!!!CDT:
!!!CNT:
!!!GTL: Na Boże ciało
!!!OTL: Sive sitim Christus restinguit sanguine
!!!PDT:
!!!AGN: Sacred
!!!SMS-siglum: PL-SA
!!!SMS-shelfmark: L 1643
!!!SMS-shelfwork: 027 G
!!!SMS-variant:
!!!SMS-altvar:
!!!NIFC-rismid: 1001064744
!!!URL-scan: http://repozytorium.nifc.pl/skany/pl-sa-nut--l1643
!!!ONB-nifc: UWAGA: 8 ksiąg. Primi chori: 1mus Cantus (x), C 2dus (48-49), C 3tius (x), Bassus (x); Secondi chori: Primus Cantus (x), C 2dus (x), Altus (x), Bassus (108-109). UWAGA: metrum 2/2 i 3/2. Nie dodawać pustych linii, chyba że w rękopisie pojawiają się dodatkowe oznaczenia dotyczące pełnej obsady (a 4, a 8 itp.)
!!!key:
**kern	**text	**kern	**text
*part2	*part2	*part1	*part1
*staff2	*staff2	*staff1	*staff1
*Iempty	*	*Iempty	*
*I"Baſsus 2di Chori	*	*I"Cantus 2dus Primi Chori.	*
*I'II Coro B	*	*I'I Coro S 2	*
*clefC3	*	*clefC1	*
*k[b-]	*	*k[b-]	*
*g:dor	*	*g:dor	*
*M2/2	*	*M2/2	*
*met(C|)	*	*met(C|)	*
=1-	=1-	=1-	=1-
!LO:TX:b:t=Siue Sÿ\ntim	!	!	!
00r	.	2b-\	Si-
.	.	4dd\	-ue
.	.	4cc\	ſi-
=2-	=2-	=2-	=2-
.	.	2b-\	-tim
.	.	2cc\	chriſ-
=3-	=3-	=3-	=3-
.	.	2b-\	-tuſ
.	.	2b-\	reſ-
=4-	=4-	=4-	=4-
.	.	2cc\	-tin-
.	.	2dd\	-guit
=5-	=5-	=5-	=5-
1r	.	2.a\	ſan-
.	.	4a\	-gui-
=6-	=6-	=6-	=6-
2r	.	2b-\	-ne
2B-/	Fe-	2r	.
=7-	=7-	=7-	=7-
2c/	-cit	1r	.
2d\	a-	.	.
=8-	=8-	=8-	=8-
2G/	-mor,	2r	.
2r	.	2b-\	ſi-
=9-	=9-	=9-	=9-
00r	.	2b-\	-ue
.	.	2a\	noſ
=10-	=10-	=10-	=10-
.	.	4b-\	pro-
.	.	4b-\	-pri-
.	.	2b-\	-o
=11-	=11-	=11-	=11-
.	.	2a\	paſ-
!	!	!LO:SIC:v:t=custos b-	!
.	.	2b-\	-cit
!	!	!LO:LB:g=original	!
=12-	=12-	=12-	=12-
.	.	4b-\	cor-
.	.	8a\L	.
.	.	8g\J	.
.	.	2a\	-po-
=13-	=13-	=13-	=13-
2r	.	2b-\	-re,
2B-/	fe-	2r	.
=14-	=14-	=14-	=14-
2G/	-cit	1r	.
2A/	a-	.	.
=15-	=15-	=15-	=15-
2d\	-mor,	2r	.
2r	.	2dd\	fe-
=16-	=16-	=16-	=16-
1r	.	2b-\	-cit
.	.	2a\	a-
=17-	=17-	=17-	=17-
2r	.	2b-\	-mor
2g\	fe-	2b-\	fe-
=18-	=18-	=18-	=18-
2c/	-cit	2cc\	-cit
2c/	a-	2cc\	a-
=19-	=19-	=19-	=19-
1g	-mor,	1b-	-mor,
=20-	=20-	=20-	=20-
*M3/2	*	*M3/2	*
2f\	Er-	2cc\	Er-
2f\	-go	2a\	-go
2c/	de-	2g/	de-
=21-	=21-	=21-	=21-
1f	-um	1cc	-um
2B-/	man-	2b-\	man-
=22-	=22-	=22-	=22-
2e-X\	-deſ-	2g/	-deſ-
!LO:SIC:v:t=custos f	!	!	!
2B-/	-que	2dd\	-gue
!LO:LB:g=original	!	!	!
2f\	de-	2a\	de-
=23-	=23-	=23-	=23-
1B-,<	-i	1dd	-i
!	!	!LO:SIC:v:t=custos cc	!
2B-/	cum	2b-\	cum
!	!	!LO:LB:g=original	!
=24-	=24-	=24-	=24-
2.f\	ſan-	2.cc\	ſan-
4f\	-gui-	4cc\	-gui-
2c/	-ne	2cc\	-ne,
=25-	=25-	=25-	=25-
*M2/2	*	*M2/2	*
*met(C|)	*	*met(C|)	*
2.g\	cor-	2b-\	ſan-
.	.	2dd\	-gui-
8f\L	.	.	.
8eny\J	.	.	.
=26-	=26-	=26-	=26-
1d	.	2dd\	-ne
.	.	2dd\	cor-
=27-	=27-	=27-	=27-
!	!	!LO:TX:b:t=P:problem=# below	!
!LO:TX:t=P:problem=kreska pseudotaktowa	!	!LO:N:acc=#	!
1g	-puſ,	1bn	-puſ,
=28-	=28-	=28-	=28-
2B-/	Est	1r	.
2F/	de-	.	.
=29-	=29-	=29-	=29-
2B-/	-uſ,	2r	.
2r	.	4b-y\	eſt
.	.	4g/	et
=30-	=30-	=30-	=30-
2r	.	2a\	ho-
4r	.	2b-\	-mo,
4G/	eſt	.	.
=31-	=31-	=31-	=31-
2c/	ui-	2r	.
2G/	-ta,	4r	.
.	.	4cc\	eſt
=32-	=32-	=32-	=32-
0r	.	4dd\	me-
.	.	4cc\	-di-
.	.	2a\	-ci-
=33-	=33-	=33-	=33-
.	.	4g/	-na
.	.	4b-\	ci-
.	.	2a\	-buſ-
=34-	=34-	=34-	=34-
4r	.	2b-\	-que,
4G/	eſt	.	.
2A/	po-	2r	.
=35-	=35-	=35-	=35-
2d\	-tuſ,	2r	.
!	!	!LO:SIC:v:t=custos b-	!
2r	.	2dd\	tan-
!	!	!LO:LB:g=original	!
=36-	=36-	=36-	=36-
0r	.	2b-\	-dem
.	.	4a\	eſt
.	.	4.b-\	om-
=37-	=37-	=37-	=37-
.	.	8b-\	-ni-
.	.	4b-\	-a
.	.	4b-\	lar-
.	.	4b-\	-gus
=38-	=38-	=38-	=38-
1r	.	2a\	a-
.	.	2b-\	-mor
=39-	=39-	=39-	=39-
!LO:SIC:v:t=custos g	!	!	!
2c/	lar-	2cc\	lar-
!LO:LB:g=original	!	!	!
2g\	-guſ	2b-\	-gus
=40-	=40-	=40-	=40-
1d	a-	1a	a-
=41-	=41-	=41-	=41-
!	!	!LO:TX:b:t=P:problem=# below	!
!	!	!LO:N:acc=#	!
1g	-mor,	1bn	-mor,
=42-	=42-	=42-	=42-
*M3/2	*	*M3/2	*
2f\	Er-	2cc\	Er-
2f\	-go	2a\	-go
2c/	de-	2g/	de-
=43-	=43-	=43-	=43-
1f	-um	1cc	-um
2B-/	man-	2b-y\	man-
=44-	=44-	=44-	=44-
2e-X\	-deſ-	2g/	-deſ-
2B-,</	-que	2dd\	-que
2f\	de-	2a\	de-
=45-	=45-	=45-	=45-
1B-	-i	1dd	-i
!	!	!LO:SIC:v:t=custos cc	!
!	!	!LO:SIC:v:t=San	!
2B-/	cum	2b-\	cum
!	!	!LO:PB:g=original	!
=46-	=46-	=46-	=46-
2.f\	ſan-	2.cc\	ſan-
4f\	-gui-	4cc\	-gui-
2c/	-ne	2cc\	-ne
=47-	=47-	=47-	=47-
*M2/2	*	*M2/2	*
*met(C|)	*	*met(C|)	*
2.g\	cor-	2.b-\	ſan-
8f\L	.	4cc\	-gui-
8eny\J	.	.	.
=48-	=48-	=48-	=48-
1d	.	2dd\	-ne
.	.	2dd\	cor-
=49-	=49-	=49-	=49-
!	!	!LO:TX:t=P:problem=kreska pseudotaktowa	!
!	!	!LO:TX:b:t=P:problem=# below	!
!	!	!LO:N:acc=#	!
1g	-puſ,	1bn	-pus,
=50-	=50-	=50-	=50-
0r	.	2b-y\	Me
.	.	2g/	tra-
=51-	=51-	=51-	=51-
.	.	4b-\	-he
.	.	2a\	dul-
.	.	4g/	-cis
=52-	=52-	=52-	=52-
!	!	!LO:TX:b:t=P:problem=# below	!
1r	.	2f#X/	a-
.	.	2g/	-mor
=53-	=53-	=53-	=53-
!LO:SIC:v:t=custos B-	!	!	!
4e-X\	dul-	1r	.
!LO:LB:g=original	!	!	!
4B-/	-ciſ	.	.
2F/	a-	.	.
=54-	=54-	=54-	=54-
2B-/	-mor,	2r	.
2r	.	4.b-\	Ve-
.	.	8b-\	-ni-
=55-	=55-	=55-	=55-
0r	.	4b-\	-am
.	.	4dd\	quo
.	.	2dd\	cun-
=56-	=56-	=56-	=56-
!	!	!LO:SIC:v:t=custos dd	!
.	.	4dd\	-q(ue)
!	!	!LO:LB:g=original	!
.	.	4dd\	uo-
!	!	!LO:TX:b:t=P:problem=# below	!
.	.	2cc#X\	-ca-
=57-	=57-	=57-	=57-
4r	.	2dd\	-bis,
4d\	uo-	.	.
2A/	-ca-	2r	.
=58-	=58-	=58-	=58-
2d\	-bis,	2r	.
2r	.	2b-\	Sim,
=59-	=59-	=59-	=59-
2F/	non	00r	.
2B-,</	Sim	.	.
=60-	=60-	=60-	=60-
4d/	de	.	.
4g\	me	.	.
2f\	quae-	.	.
=61-	=61-	=61-	=61-
4B-/	-que	.	.
4.e-X\	re-	.	.
8e-\	-poſ-	.	.
4B-/	-kat	.	.
=62-	=62-	=62-	=62-
2F/	a-	.	.
2B-/	-mor,	.	.
=63-	=63-	=63-	=63-
0r	.	4dd\	de
.	.	4ccny\	me
.	.	2a\	quae-
=64-	=64-	=64-	=64-
.	.	4b-\	-que
.	.	4.b-\	re-
.	.	8b-\	poſ-
.	.	4b-\	-kat
=65-	=65-	=65-	=65-
1r	.	2a\	a-
.	.	2b-\	-mor
=66-	=66-	=66-	=66-
4d\	de	1r	.
4g\	me	.	.
!LO:N:vis=2	!	!	!
4f\	quae-	.	.
!LO:SIC:v:t=custos c	!	!	!
!LO:SIC:b:v:l:t=custos re	!	!	!
4B-/	-que	.	.
!LO:PB:g=original	!	!	!
=67-	=67-	=67-	=67-
4.c/	re-	4r	.
.	.	4.cc\	re-
8c/	poſ-	.	.
2g\	-kat	.	.
.	.	8cc\	poſ-
.	.	4b-\	-kat
=68-	=68-	=68-	=68-
1d	a-	1a	a-
=69-	=69-	=69-	=69-
!	!	!LO:TX:b:t=P:problem=# below	!
!	!	!LO:N:acc=#	!
1g	-mor,	1bn	-mor,
=70-	=70-	=70-	=70-
*M3/2	*	*M3/2	*
2f\	Er-	2cc\	Er-
2f\	-go	2a\	-go
!	!	!LO:SIC:v:t=custos cc	!
2c/	de-	2g/	de-
!	!	!LO:LB:g=original	!
=71-	=71-	=71-	=71-
1f	-um	1cc	-um
2B-/	man-	2b-y\	man-
=72-	=72-	=72-	=72-
2e-X\	-deſ-	2g/	-deſ-
2B-,</	-que	2dd\	-que
2f\	de-	2a\	de-
=73-	=73-	=73-	=73-
1B-	-i	1dd	-i
2B-/	cum	2b-\	cum
=74-	=74-	=74-	=74-
2.f\	ſan-	2.cc\	ſan-
4f\	-gui-	4cc\	-gui-
2c/	-ne	2cc\	-ne,
=75-	=75-	=75-	=75-
*M2/2	*	*M2/2	*
*met(C|)	*	*met(C|)	*
2.g\	cor-	2.b-\	ſan-
8f\L	.	4dd\	-gui-
8eny\J	.	.	.
=76-	=76-	=76-	=76-
1d	.	2dd\	-ne
.	.	2dd\	cor-
=77-	=77-	=77-	=77-
!	!	!LO:TX:b:t=P:problem=# below	!
!	!	!LO:N:acc=#	!
1g	-pus,	1bn	-puſ,
=78-	=78-	=78-	=78-
4.B-/	om-	4.dd\	om-
!LO:SIC:v:t=custos b	!	!	!
8B-/	-ni-	8dd\	-ni-
!LO:LB:g=original	!	!	!
4B-/	-a	4dd\	-a
2e-X\	man-	2b-y\	man-
=79-	=79-	=79-	=79-
!LO:TX:a:t=długie s	!	!	!
4B-/	-deſ	4b-\	-deſ
2f\	a-	2cc\	a-
=80-	=80-	=80-	=80-
!	!	!LO:SIC:v:t=custos d	!
2B-/	-mor	2b-\	-mor
!	!	!LO:LB:g=original	!
4B-/	fi-	2r	.
4F/	-am	.	.
=81-	=81-	=81-	=81-
2B-/	mox,	4r	.
.	.	4.dd\	om-
2r	.	.	.
.	.	8dd\	-ni-
.	.	4cc\	-a-
=82-	=82-	=82-	=82-
1r	.	2a\	-fi-
.	.	2b-\	-am
=83-	=83-	=83-	=83-
4G/	fi-	2r	.
4c\	-am	.	.
4B-/	mox,	4r	.
4r	.	4.b-\	o-
=84-	=84-	=84-	=84-
1r	.	.	.
.	.	8b-\	-mni-
.	.	4b-\	-a-
.	.	2a\	-fi-
=85-	=85-	=85-	=85-
4r	.	2b-\	-am
4.B-/	om-	.	.
.	.	2r	.
8B-/	-ni-	.	.
4c/	-a	.	.
=86-	=86-	=86-	=86-
2d\	fi-	1r	.
2G/	-am,	.	.
=87-	=87-	=87-	=87-
1r	.	4b-\	Nam
.	.	4b-\	ſer-
.	.	4g/	-ui-
.	.	2b-\	-re
=88-	=88-	=88-	=88-
2r	.	.	.
.	.	4a\	po-
4r	.	2b-\	-teſt
4.B-/	ce-	.	.
=89-	=89-	=89-	=89-
.	.	0r	.
8B-/	-de-	.	.
4B-/	-re	.	.
4F/	neſ-	.	.
4G/	-cit	.	.
=90-	=90-	=90-	=90-
2d\	a-	.	.
!LO:SIC:v:t=custos b	!	!	!
2G/	-mor	.	.
!LO:LB:g=original	!	!	!
=91-	=91-	=91-	=91-
1r	.	4b-\	nam
.	.	4b-\	ſer-
.	.	4b-\	-ui-
.	.	4b-\	-re
=92-	=92-	=92-	=92-
2r	.	2a\	po-
!	!	!LO:SIC:v:t=custos b	!
4r	.	2b-\	-teſt
4.d/	ce-	.	.
!	!	!LO:LB:g=original	!
=93-	=93-	=93-	=93-
.	.	1r	.
8d/	-de-	.	.
4d/	-re	.	.
4e-X\	neſ	.	.
4B-/	-cit	.	.
=94-	=94-	=94-	=94-
2F/	a-	2r	.
2B-/	-mor,	4r	.
.	.	4.b-\	ce-
=95-	=95-	=95-	=95-
1r	.	.	.
.	.	8b-\	-de-
.	.	4b-\	-re
.	.	4a\	neſ-
.	.	4g/	-cit
=96-	=96-	=96-	=96-
!	!	!LO:TX:b:t=P:problem=# below	!
2r	.	2f#X/	a-
4r	.	4g/	-mor,
4.B-/	ce-	4r	.
=97-	=97-	=97-	=97-
.	.	1r	.
8B-/	-de-	.	.
4B-/	-re	.	.
4F/	neſ	.	.
4G/	-cit	.	.
=98-	=98-	=98-	=98-
2d\	a-	2r	.
4G/	-mor,	4r	.
4r	.	4.dd\	ce-
=99-	=99-	=99-	=99-
0r	.	.	.
.	.	8dd\	-de-
.	.	4dd\	-re
.	.	4cc\	neſ-
.	.	4b-\	-cit
=100-	=100-	=100-	=100-
.	.	2a\	a-
.	.	2b-\	-mor,
=101-	=101-	=101-	=101-
4.g\	ce-	4.b-\	ce-
8g\	-de-	8b-\	-de-
2g\	-re	2b-\	-re
=102-	=102-	=102-	=102-
4c/	ne-	1cc	neſ-
4d\	.	.	.
4eny\	.	.	.
4f\	.	.	.
=103-	=103-	=103-	=103-
1g	-scit	1b-	-cit
=104-	=104-	=104-	=104-
!LO:SIC:v:t=custos g	!	!	!
1d	a-	1a	a-
!LO:LB:g=original	!	!	!
=105-	=105-	=105-	=105-
!	!	!LO:SIC:v:t=custos cc	!
!	!	!LO:TX:b:t=P:problem=# below	!
!	!	!LO:N:acc=#	!
1g	-mor	1bn	-mor
!	!	!LO:LB:g=original	!
=106-	=106-	=106-	=106-
*M3/2	*	*M3/2	*
2f\	Er-	2cc\	Er-
2f\	-go	2a\	-go
2c/	de-	2g/	de-
=107-	=107-	=107-	=107-
1f	-um	1cc	-um
2B-/	man-	2b-y\	man-
=108-	=108-	=108-	=108-
2e-X\	-deſ-	2g/	-deſ-
2B-,</	-que	2dd\	-que
2f\	de-	2a\	de-
=109-	=109-	=109-	=109-
1B-	-i	1dd	-i
2B-/	cum	2b-\	cum
=110-	=110-	=110-	=110-
2.f\	ſan-	2.cc\	ſan-
4f\	-gui-	4cc\	-gui-
2c/	-ne,	2cc\	-ne
=111-	=111-	=111-	=111-
*M2/2	*	*M2/2	*
*met(C|)	*	*met(C|)	*
2.g\	ſan-	2.b-\	ſan-
8f\L	-gui-	4dd\	-gui-
8eny\J	.	.	.
=112-	=112-	=112-	=112-
1d,<	-ne	2dd\	-ne
.	.	2dd\	cor-
=113-	=113-	=113-	=113-
2g,<\	cum	2b-\	-puſ,
2g\	ſan-	2b-\	cum
=114-	=114-	=114-	=114-
4c/	-gui-	2.cc\	ſan-
4d/	.	.	.
4e\	.	.	.
!LO:SIC:v:t=custos g	!	!	!
4f\	.	4cc\	-gui-
!LO:LB:g=original	!	!	!
=115-	=115-	=115-	=115-
!	!	!LO:SIC:v:t=custos d	!
1g	-ne	1b-	-ne
!	!	!LO:LB:g=original	!
=116-	=116-	=116-	=116-
0d	cor-	1.dd	cor-
=117-	=117-	=117-	=117-
.	.	2a\	.
=118-	=118-	=118-	=118-
1gl;<	-puſ;	1b-l;;	-pus,
==	==	==	==
*-	*-	*-	*-
!!!system-decoration: [(s1)][(s2)]
!!!RDF**kern: > = above
!!!RDF**kern: < = below
!!!RDF**kern: l = terminal long
!!!AIN: 2 empty
!!!ENC: Andrzej Gręziak
!!!END: 2021-10-03
!!!ENC: Andrzej Kubiczek
!!!END: 2021-10-08
